usr/share/icons/biglinux-icons-material-dark/16/devices/network-wireless-connected-50.svg

<svg xmlns="http://www.w3.org/2000/svg" viewBox="0 0 16 16">
  <defs id="defs3051">
    <style type="text/css" id="current-color-scheme">
      .ColorScheme-Text {
        color:#dedede;
      }
      </style>
  </defs>
 <path 
     style="fill:currentColor;fill-opacity:1;stroke:none" 
     class="ColorScheme-Text"
     d="m 7.9997736,8.9059536 c -1.2954831,0 -2.5187557,0.5704129 -3.3554486,1.5663714 -0.2596038,0.308779 -0.2187088,0.769328 0.090567,1.028905 0.1368345,0.114926 0.30308,0.172226 0.4691689,0.172226 0.2084413,0 0.4155817,-0.08939 0.5597364,-0.261309 0.5586319,-0.6648 1.3734534,-1.045237 2.2359759,-1.045237 0.8625229,0 1.67737,0.380437 2.2359754,1.045237 0.144652,0.172416 0.351766,0.261309 0.559737,0.261309 0.166089,0 0.332334,-0.0568 0.469169,-0.172226 0.309276,-0.259604 0.350145,-0.720152 0.09057,-1.028905 C 10.518503,9.4763665 9.2952306,8.9059536 7.9997736,8.9059536 Z M 7.9374167,11.679396 C 7.3660445,11.733839 6.8165138,12.161224 6.7971579,12.797384 6.7971579,13.461581 7.3355989,14 7.9997744,14 8.66395,14 9.2023908,13.461581 9.2023908,12.797384 9.1007519,11.943462 8.5087881,11.624955 7.9374167,11.679396 Z"
     />
 <path 
     style="fill:currentColor;fill-opacity:0.5;stroke:none" 
     class="ColorScheme-Text"
     d="m 7.9997736,2.5974132 c -3.020999,0 -5.874458,1.3332678 -7.82888534,3.6583299 -0.25960384,0.3087796 -0.21870885,0.7693276 0.0905674,1.0289053 0.13683447,0.1149264 0.30310615,0.1707419 0.46916894,0.1707419 0.20844128,0 0.41511119,-0.087906 0.55973639,-0.2598246 1.6753731,-1.993381 4.1208775,-3.1371961 6.7094126,-3.1371961 2.5885354,0 5.0340654,1.1442857 6.7094124,3.1371961 0.144651,0.1719189 0.351269,0.2598246 0.559737,0.2598246 0.166089,0 0.333819,-0.055319 0.470654,-0.1707419 C 16.048356,7.0255152 16.088262,6.564026 15.828659,6.2557431 13.874728,3.930681 11.020773,2.5974132 7.9997736,2.5974132 Z m 0,3.0941394 c -2.1580058,0 -4.1956291,0.9528048 -5.5914247,2.6130925 -0.2595776,0.3087797 -0.2201935,0.7693279 0.089083,1.0289055 0.1368345,0.1149267 0.30308,0.1707424 0.4691689,0.1707424 0.2084413,0 0.4155818,-0.087906 0.5597364,-0.2598247 1.1167409,-1.3290779 2.7478947,-2.0919592 4.4734366,-2.0919592 1.7255421,0 3.3561994,0.7628813 4.4734374,2.0919592 0.144651,0.1724155 0.351791,0.2598247 0.559736,0.2598247 0.166088,0 0.332308,-0.055318 0.469168,-0.1707424 C 13.811366,9.073973 13.85075,8.6129543 13.591199,8.3046451 12.19488,6.6443835 10.157779,5.6915526 7.9997736,5.6915526 Z"
     />
</svg>

<svg xmlns="http://www.w3.org/2000/svg" viewBox="0 0 16 16">
<defs id="defs3051">
<style id="current-color-scheme" type="text/css">
.ColorScheme-Text{color:#dedede}
</style>
</defs>
<path d="M8 8.906c-1.296 0-2.519.57-3.356 1.566a.73.73 0 0 0 1.12.94 2.915 2.915 0 0 1 4.472 0 .73.73 0 0 0 1.029.09.73.73 0 0 0 .09-1.03A4.37 4.37 0 0 0 8 8.906m-.063 2.773c-.571.055-1.12.482-1.14 1.118a1.203 1.203 0 0 0 2.405 0c-.101-.854-.693-1.172-1.265-1.118" class="ColorScheme-Text" style="fill:currentColor;fill-opacity:1;stroke:none"/>
<path d="M8 2.597A10.21 10.21 0 0 0 .17 6.256a.73.73 0 0 0 1.12.94A8.75 8.75 0 0 1 8 4.058a8.75 8.75 0 0 1 6.71 3.138c.144.171.35.26.559.26a.73.73 0 0 0 .56-1.2 10.21 10.21 0 0 0-7.83-3.659m0 3.095a7.3 7.3 0 0 0-5.592 2.613.73.73 0 1 0 1.118.94A5.84 5.84 0 0 1 8 7.152c1.725 0 3.356.762 4.473 2.091a.73.73 0 0 0 1.03.09.73.73 0 0 0 .088-1.03A7.3 7.3 0 0 0 8 5.693" class="ColorScheme-Text" style="fill:currentColor;fill-opacity:.5;stroke:none"/>
</svg>
